X: 20272
T: La TRENISE.     Quadrille.
%R: march
B: "Edinburgh Repository of Music" v.2 p.27 #2
F: http://digital.nls.uk/special-collections-of-printed-music/pageturner.cfm?id=87776133
Z: 2015 John Chambers <jc:trillian.mit.edu>
M: 2/4
L: 1/16
K: Dm
a2aa |\
a2a2a2a2 | (a2d'2) a2aa | a2a2 g2f2 | e4 a2aa |\
a2a2a2a2 | (a2d'2) b2bb | a2g2f2e2 | "_Fine."d4 H|]
f2ff |\
f2f2 (f2a2) | g2c2 g2gg | g2g2 g2b2 | a4 c'2c'c' |\
b2b2 g2g2 | a2a2 f2ff | g2g2 e2g2 | f4 !segno!|][K:=B]
[K:D] ({g}fefg) |\
a2a2a2a2 | b2b2b2b2 | a2a2 {a}gfga | g2g2 {g}fefg |\
a2a2a2a2 | b2b2 d'2c'b | a2f2 {f}edef | d4 !segno!|]">D.C."y

%%sep 2 1 500
%%sep 1 1 500

